svgs/light/face-tongue-sweat.svg

<svg xmlns="http://www.w3.org/2000/svg" viewBox="0 0 576 512"><!--! Font Awesome Pro 6.3.0 by @fontawesome - https://fontawesome.com License - https://fontawesome.com/license (Commercial License) Copyright 2023 Fonticons, Inc. --><path d="M288 32C174.4 32 80.57 116.5 65.98 226.1C64.81 234.9 56.76 241 48 239.9C39.24 238.7 33.09 230.6 34.26 221.9C50.95 96.62 158.2 0 288 0C429.4 0 544 114.6 544 256C544 339.8 503.8 414.1 441.6 460.8C398.8 492.9 345.6 512 288 512C230.4 512 177.2 492.9 134.4 460.8C127.3 455.5 125.9 445.5 131.2 438.4C136.5 431.3 146.5 429.9 153.6 435.2C169.2 446.1 186.5 456.7 204.9 464.1C196.8 450.1 192.1 433.1 192 416.7C181.8 409.5 175.1 401 175.1 392C175.1 365.5 226.1 344 287.1 344C349.9 344 400 365.5 400 392C400 401 394.2 409.5 383.1 416.7C383.9 433.1 379.2 450.1 371.1 464.1C389.5 456.7 406.8 446.1 422.4 435.2C476.8 394.3 512 329.3 512 256C512 132.3 411.7 32 288 32H288zM224 417.6C224 452.1 251.9 480 286.4 480H289.6C324.1 480 352 452.1 352 417.6V402.1C352 388.1 339.9 376 325 376H322.5C311.6 376 302.1 383.4 299.5 393.1C296.5 405.9 279.5 405.9 276.5 393.1C273.9 383.4 264.4 376 253.5 376H250.1C236.1 376 224 388.1 224 402.1V417.6zM55.47 276.1C59.73 270.6 68.27 270.6 72.53 276.1C90.09 297.8 128 348.3 128 373.3C128 405.8 99.28 432 64 432C28.72 432 0 405.8 0 373.3C0 348.3 38.07 297.8 55.47 276.1zM48.24 340.6C42.84 349.1 38.41 357 35.43 363.7C32.83 369.5 32.2 372.5 32.05 373.2C32.01 373.4 32 373.4 32 373.3C32 385.5 43.71 400 64 400C84.29 400 96 385.5 96 373.3C96 373.4 95.99 373.4 95.95 373.2C95.81 372.5 95.18 369.5 92.58 363.6C89.61 356.1 85.19 349.1 79.81 340.6C74.81 332.7 69.32 324.8 64.04 317.5C58.74 324.8 53.25 332.7 48.24 340.6H48.24zM367.6 296C354.4 296 343.6 285.3 343.6 272C343.6 258.7 354.4 248 367.6 248C380.9 248 391.6 258.7 391.6 272C391.6 285.3 380.9 296 367.6 296zM207.6 248C220.9 248 231.6 258.7 231.6 272C231.6 285.3 220.9 296 207.6 296C194.4 296 183.6 285.3 183.6 272C183.6 258.7 194.4 248 207.6 248zM203.9 178.7C180.4 202.3 150 217.9 117.1 223.4L114.6 223.8C105.9 225.2 97.67 219.3 96.22 210.6C94.76 201.9 100.7 193.7 109.4 192.2L111.9 191.8C138.2 187.4 162.5 174.9 181.3 156.1L188.7 148.7C194.9 142.4 205.1 142.4 211.3 148.7C217.6 154.9 217.6 165.1 211.3 171.3L203.9 178.7zM387.3 148.7L394.7 156.1C413.5 174.9 437.8 187.4 464.2 191.8L466.6 192.2C475.3 193.7 481.2 201.9 479.8 210.6C478.3 219.3 470.1 225.2 461.4 223.8L458.9 223.4C425.1 217.9 395.6 202.3 372.1 178.7L364.7 171.3C358.4 165.1 358.4 154.9 364.7 148.7C370.9 142.4 381.1 142.4 387.3 148.7z"/></svg>

<svg xmlns="http://www.w3.org/2000/svg" viewBox="0 0 576 512"><!--! Font Awesome Pro 6.4.0 by @fontawesome - https://fontawesome.com License - https://fontawesome.com/license (Commercial License) Copyright 2023 Fonticons, Inc. --><path d="M288 32C174.4 32 80.6 116.5 66 226.1c-1.2 8.8-9.2 14.9-18 13.7s-14.9-9.2-13.7-18C50.9 96.6 158.2 0 288 0C429.4 0 544 114.6 544 256c0 83.8-40.2 158.1-102.4 204.8C398.8 492.9 345.6 512 288 512s-110.8-19.1-153.6-51.2c-7.1-5.3-8.5-15.3-3.2-22.4s15.3-8.5 22.4-3.2c15.6 11.8 32.9 21.5 51.3 28.9c-8.1-13.9-12.8-30.1-12.9-47.3c-10.2-7.2-16-15.7-16-24.7c0-26.5 50.1-48 112-48s112 21.5 112 48c0 9-5.8 17.5-16 24.7c-.1 17.2-4.8 33.4-12.9 47.3c18.4-7.4 35.7-17.1 51.3-28.9C476.8 394.3 512 329.3 512 256C512 132.3 411.7 32 288 32zM64 317.5c-5.3 7.2-10.8 15.1-15.8 23c-5.4 8.5-9.8 16.4-12.8 23.1c-2.6 5.8-3.2 8.8-3.4 9.5c0 .2 0 .2 0 .1C32 385.5 43.7 400 64 400s32-14.5 32-26.7c0 .1 0 .1 0-.1c-.1-.7-.8-3.7-3.4-9.6c-3-6.7-7.4-14.5-12.8-23.1c-5-7.9-10.5-15.8-15.8-23zm-8.6-41.4c4.3-5.5 12.8-5.5 17.1 0c17.6 21.7 55.5 72.2 55.5 97.2c0 32.5-28.7 58.7-64 58.7s-64-26.2-64-58.7c0-25 38.1-75.5 55.5-97.2zM367.6 248a24 24 0 1 1 0 48 24 24 0 1 1 0-48zm-136 24a24 24 0 1 1 -48 0 24 24 0 1 1 48 0zM211.3 171.3l-7.4 7.4c-23.6 23.6-53.9 39.2-86.8 44.7l-2.5 .4c-8.7 1.5-17-4.4-18.4-13.2s4.4-17 13.2-18.4l2.5-.4c26.3-4.4 50.6-16.9 69.5-35.7l7.4-7.4c6.2-6.2 16.4-6.2 22.6 0s6.2 16.4 0 22.6zm153.4-22.6c6.2-6.2 16.4-6.2 22.6 0l7.4 7.4c18.9 18.9 43.2 31.4 69.5 35.7l2.5 .4c8.7 1.5 14.6 9.7 13.2 18.4s-9.7 14.6-18.4 13.2l-2.5-.4c-32.9-5.5-63.3-21.1-86.8-44.7l-7.4-7.4c-6.2-6.2-6.2-16.4 0-22.6zM224 417.6c0 34.5 27.9 62.4 62.4 62.4h3.2c34.5 0 62.4-27.9 62.4-62.4V403c0-14.9-12.1-27-27-27h-2.5c-10.9 0-20.4 7.4-23 18c-3 12-20 12-23 0c-2.6-10.6-12.1-18-23-18H251c-14.9 0-27 12.1-27 27v14.6z"/></svg>
